X:1
T:A-Part
L:1/8
Q:3/8=130
M:6/8
K:G
 G,2 z D,2 z | D,2 z A,,2 z | E,2 z B,,2 z |C,2 z D,2 z |
 G,2 z D,2 z | D,2 z A,,2 z | E,2 z D,2 z | D,2 z G,2 z ::
 G,4 z z | E,4 z z |C,4 z z | D,4 z z |
 z z D,4 | z z C,4 | z z D,4 | G,,6 :|
